X: 40
T: Mary Thorburn Cunningham
C:Phil Cunningham
M:3/4
L:1/8
K:G
DE|G4 GA|B4 AB|c g3 e2|d B3 BA|
B4 Bd|B4 A2|G E3 G2| B4 AB|
c (g3 g)f| e d3 de| B3 (E E)F| E2 D2 DE|
G4 AB|c E3 EF| E2 D2 E2| G4 ||

%%sep 2 1 500

